X:
T:Shannon et Vicky
C:Laurence Beaudry
N:© Laurence Beaudry, Reproduced with Permission
Z:robin.beech@mcgill.ca
R:waltz
M:3/4
L:1/4
K:G
D2 |: B&gt;AG | A&gt;cA | B&gt;dB | cde | B&gt;AG | dBG | EGB | FED |
B&gt;AG | A&gt;cA | B&gt;dB | cec | deg | dBG | FAd |1 G3 :|2 G2- G/g/ |:
fdA | afd | efg | c3 | Bdg | bag | f/g/af | d2c |
ecG | ceg | dBg | dBd | cAc | BGB | dfa | g3 :|

